packages/foundations/assets/icons/functional/images/editing/bin.svg

<svg xmlns="http://www.w3.org/2000/svg" width="32" height="32" fill="none"><path fill="#1A1C1F" fill-rule="evenodd" d="M11.511 2.147c-.233.142-.378.32-.462.568-.042.121-.062.698-.062 1.745v1.564l-3.191.015-3.191.014-.202.155c-.553.421-.519 1.235.068 1.637l.188.128h22.682l.188-.128c.587-.402.621-1.216.068-1.637l-.202-.155-3.188-.014-3.188-.015-.016-1.669-.016-1.67-.147-.221a1.15 1.15 0 0 0-.358-.33c-.207-.105-.302-.107-4.493-.107h-4.282zm7.476 2.866v1.014h-5.974V4h5.974zM4.56 10.111a.93.93 0 0 0-.486.536c-.169.445-.013.916.397 1.198.175.12.247.13 1.081.155.988.029 1.061.053 1.315.426l.12.176.001 7.313c.001 8.095-.015 7.707.349 8.447.366.744 1.147 1.357 1.996 1.566.239.058 1.506.072 6.774.072h6.48l.375-.118c.48-.151.936-.447 1.294-.84.296-.324.429-.548.617-1.039.114-.296.114-.306.14-7.87l.027-7.573.124-.174c.224-.314.369-.356 1.32-.386.796-.025.871-.036 1.045-.155.587-.403.621-1.216.068-1.637l-.202-.155-.937-.018c-.601-.011-1.043.006-1.231.047-.76.167-1.575.802-1.912 1.491-.339.696-.326.358-.327 8.459l-.001 7.366-.12.176a1.4 1.4 0 0 1-.271.288c-.15.111-.152.111-6.475.125l-6.325.014-.235-.113a1 1 0 0 1-.378-.331l-.143-.216-.027-7.524c-.026-7.513-.026-7.524-.14-7.82-.208-.543-.352-.768-.734-1.145-.698-.689-1.108-.825-2.484-.825-.743 0-.968.017-1.095.084m7.04 2.983a1.1 1.1 0 0 0-.513.533c-.093.203-.098.483-.099 5.845-.001 4.171.015 5.679.061 5.813.149.431.516.701.954.701.339 0 .622-.15.824-.435l.16-.227.014-5.739.014-5.74-.133-.269c-.175-.356-.426-.524-.82-.549-.207-.013-.352.008-.462.067m4-.009a1.08 1.08 0 0 0-.532.586c-.075.198-.083.838-.07 5.938l.015 5.715.16.227a.998.998 0 0 0 1.654 0l.16-.227.014-5.739.014-5.74-.133-.269c-.176-.358-.426-.525-.82-.547-.18-.01-.367.012-.462.056m4 .009a1.1 1.1 0 0 0-.513.533c-.093.203-.098.483-.099 5.845-.001 4.171.015 5.679.061 5.813.149.431.516.701.954.701.339 0 .622-.15.824-.435l.16-.227.014-5.739.014-5.74-.133-.269c-.175-.356-.426-.524-.82-.549-.207-.013-.352.008-.462.067"/></svg>

<svg width="32" height="32" viewBox="0 0 32 32" fill="none" xmlns="http://www.w3.org/2000/svg"><path d="M11.511 2.147 C 11.278 2.289,11.133 2.467,11.049 2.715 C 11.007 2.836,10.987 3.413,10.987 4.460 L 10.987 6.024 7.796 6.039 L 4.605 6.053 4.403 6.208 C 3.850 6.629,3.884 7.443,4.471 7.845 L 4.659 7.973 16.000 7.973 L 27.341 7.973 27.529 7.845 C 28.116 7.443,28.150 6.629,27.597 6.208 L 27.395 6.053 24.207 6.039 L 21.019 6.024 21.003 4.355 L 20.987 2.685 20.840 2.464 C 20.759 2.342,20.598 2.194,20.482 2.134 C 20.275 2.029,20.180 2.027,15.989 2.027 L 11.707 2.027 11.511 2.147 M18.987 5.013 L 18.987 6.027 16.000 6.027 L 13.013 6.027 13.013 5.013 L 13.013 4.000 16.000 4.000 L 18.987 4.000 18.987 5.013 M4.560 10.111 C 4.311 10.240,4.170 10.396,4.074 10.647 C 3.905 11.092,4.061 11.563,4.471 11.845 C 4.646 11.965,4.718 11.975,5.552 12.000 C 6.540 12.029,6.613 12.053,6.867 12.426 L 6.987 12.602 6.988 19.915 C 6.989 28.010,6.973 27.622,7.337 28.362 C 7.703 29.106,8.484 29.719,9.333 29.928 C 9.572 29.986,10.839 30.000,16.107 30.000 L 22.587 30.000 22.962 29.882 C 23.442 29.731,23.898 29.435,24.256 29.042 C 24.552 28.718,24.685 28.494,24.873 28.003 C 24.987 27.707,24.987 27.697,25.013 20.133 L 25.040 12.560 25.164 12.386 C 25.388 12.072,25.533 12.030,26.484 12.000 C 27.280 11.975,27.355 11.964,27.529 11.845 C 28.116 11.442,28.150 10.629,27.597 10.208 L 27.395 10.053 26.458 10.035 C 25.857 10.024,25.415 10.041,25.227 10.082 C 24.467 10.249,23.652 10.884,23.315 11.573 C 22.976 12.269,22.989 11.931,22.988 20.032 L 22.987 27.398 22.867 27.574 C 22.801 27.671,22.679 27.800,22.596 27.862 C 22.446 27.973,22.444 27.973,16.121 27.987 L 9.796 28.001 9.561 27.888 C 9.419 27.819,9.270 27.688,9.183 27.557 L 9.040 27.341 9.013 19.817 C 8.987 12.304,8.987 12.293,8.873 11.997 C 8.665 11.454,8.521 11.229,8.139 10.852 C 7.441 10.163,7.031 10.027,5.655 10.027 C 4.912 10.027,4.687 10.044,4.560 10.111 M11.600 13.094 C 11.356 13.226,11.196 13.392,11.087 13.627 C 10.994 13.830,10.989 14.110,10.988 19.472 C 10.987 23.643,11.003 25.151,11.049 25.285 C 11.198 25.716,11.565 25.986,12.003 25.986 C 12.342 25.986,12.625 25.836,12.827 25.551 L 12.987 25.324 13.001 19.585 L 13.015 13.845 12.882 13.576 C 12.707 13.220,12.456 13.052,12.062 13.027 C 11.855 13.014,11.710 13.035,11.600 13.094 M15.600 13.085 C 15.369 13.191,15.164 13.416,15.068 13.671 C 14.993 13.869,14.985 14.509,14.998 19.609 L 15.013 25.324 15.173 25.551 C 15.588 26.137,16.412 26.137,16.827 25.551 L 16.987 25.324 17.001 19.585 L 17.015 13.845 16.882 13.576 C 16.706 13.218,16.456 13.051,16.062 13.029 C 15.882 13.019,15.695 13.041,15.600 13.085 M19.600 13.094 C 19.356 13.226,19.196 13.392,19.087 13.627 C 18.994 13.830,18.989 14.110,18.988 19.472 C 18.987 23.643,19.003 25.151,19.049 25.285 C 19.198 25.716,19.565 25.986,20.003 25.986 C 20.342 25.986,20.625 25.836,20.827 25.551 L 20.987 25.324 21.001 19.585 L 21.015 13.845 20.882 13.576 C 20.707 13.220,20.456 13.052,20.062 13.027 C 19.855 13.014,19.710 13.035,19.600 13.094 " fill="#1A1C1F" stroke="none" fill-rule="evenodd"></path></svg>
